svgs/light/clover.svg

<svg xmlns="http://www.w3.org/2000/svg" viewBox="0 0 512 512"><!--! Font Awesome Pro 6.0.0-alpha3 by @fontawesome - https://fontawesome.com License - https://fontawesome.com/license (Commercial License) --><path d="M497.6 255.7c9.156-13.56 14.09-29.75 14.09-46.78C511.7 164.3 477.2 128 434.9 128c-20.88 0-50.38 14.66-86.41 35.53C369.3 127.5 384 98 384 77.13C384 34.59 347.7 0 303.1 0c-17.06 0-33.69 5.156-47.34 14.44C242.2 5.281 225.1 .3438 208.9 .3438C164.3 .3438 128 34.78 128 77.13C128 98 142.7 127.5 163.5 163.5C127.5 142.7 97.1 128 77.13 128C34.59 128 0 164.3 0 208.9C0 226 5.156 242.6 14.44 256.3C5.281 269.8 .3438 286 .3438 303.1C.3438 347.7 34.78 384 77.13 384c20.87 0 50.38-14.66 86.41-35.53C142.7 384.5 128 414 128 434.9C128 477.4 164.3 512 208.9 512c17.06 0 33.69-5.156 47.34-14.44c13.56 9.156 29.75 14.09 46.78 14.09C347.7 511.7 384 477.2 384 434.9c0-20.88-14.66-50.38-35.53-86.41C384.5 369.3 413.1 384 434.9 384C477.4 384 512 347.7 512 303.1C512 286 506.8 269.4 497.6 255.7zM434.9 352c-18.34 0-65.03-27.88-92.94-44.53c-11.91-7.125-22.53-13.44-30.5-17.62c-6.219-3.312-13.84-2.094-18.75 2.844c-4.969 4.969-6.125 12.56-2.844 18.75c4.188 7.969 10.5 18.59 17.62 30.5C324.1 369.8 352 416.5 352 434.9c0 24.69-21.97 44.78-48.94 44.78c-13.66 0-26.31-5.031-35.63-14.12c-6.25-6.125-16.22-6.031-22.47 .0938C235.8 474.8 222.6 480 208.9 480C181.1 480 160 459.8 160 434.9c0-18.34 27.88-65.03 44.53-92.94c7.125-11.91 13.44-22.53 17.62-30.5c3.281-6.188 2.125-13.78-2.844-18.75C216.3 289.6 212.2 288 208 288C205.5 288 202.9 288.6 200.6 289.8c-7.969 4.188-18.59 10.5-30.5 17.62C142.2 324.1 95.47 352 77.13 352c-24.69 0-44.78-21.97-44.78-48.94c0-13.66 5.031-26.31 14.12-35.63c6.125-6.25 6.062-16.25-.0938-22.47C37.25 235.8 32 222.6 32 208.9C32 181.1 52.25 160 77.13 160c18.34 0 65.03 27.88 92.94 44.53c11.91 7.125 22.53 13.44 30.5 17.62c6.156 3.25 13.81 2.062 18.75-2.844c4.969-4.969 6.125-12.56 2.844-18.75c-4.188-7.969-10.5-18.59-17.62-30.5C187.9 142.2 160 95.47 160 77.13c0-24.69 21.97-44.78 48.94-44.78c13.66 0 26.31 5.031 35.63 14.12c6.281 6.188 16.25 6.094 22.47-.0938C276.3 37.25 289.4 32 303.1 32C330 32 352 52.25 352 77.13c0 18.34-27.88 65.03-44.53 92.94c-7.125 11.91-13.44 22.53-17.62 30.5c-.0918 .1719-.0098 .373-.0938 .5469c-1.301 2.689-1.736 5.568-1.441 8.479c.0625 .623 .207 1.139 .3418 1.75c.627 2.904 1.779 5.717 4.037 7.975c2.254 2.254 5.059 3.406 7.957 4.035c.6172 .1387 1.135 .2773 1.764 .3418C302.9 223.7 303.5 224 304 224c2.385 0 4.699-.6914 6.891-1.752c.1738-.084 .375 0 .5469-.0918c7.969-4.188 18.59-10.5 30.5-17.62C369.8 187.9 416.5 160 434.9 160c24.69 0 44.78 21.97 44.78 48.94c0 13.66-5.031 26.31-14.12 35.63c-6.125 6.25-6.062 16.25 .0938 22.47C474.8 276.3 480 289.4 480 303.1C480 330 459.8 352 434.9 352z"/></svg>

<svg xmlns="http://www.w3.org/2000/svg" viewBox="0 0 512 512"><!-- Font Awesome Pro 6.0.0-alpha2 by @fontawesome - https://fontawesome.com License - https://fontawesome.com/license (Commercial License) --><path d="M497.562 255.719C506.719 242.156 511.656 225.969 511.656 208.937C511.656 164.312 477.219 128 434.875 128C414 128 384.5 142.656 348.469 163.531C369.344 127.5 384 98 384 77.125C384 34.594 347.688 0 303.062 0C286 0 269.375 5.156 255.719 14.438C242.156 5.281 225.969 0.344 208.938 0.344C164.312 0.344 128 34.781 128 77.125C128 98 142.656 127.5 163.531 163.531C127.5 142.656 98 128 77.125 128C34.594 128 0 164.312 0 208.938C0 226 5.156 242.625 14.438 256.281C5.281 269.844 0.344 286.031 0.344 303.062C0.344 347.688 34.781 384 77.125 384C98 384 127.5 369.344 163.531 348.469C142.656 384.5 128 414 128 434.875C128 477.406 164.312 512 208.938 512C226 512 242.625 506.844 256.281 497.562C269.844 506.719 286.031 511.656 303.063 511.656C347.688 511.656 384 477.219 384 434.875C384 414 369.344 384.5 348.469 348.469C384.5 369.344 414 384 434.875 384C477.406 384 512 347.688 512 303.062C512 286 506.844 269.375 497.562 255.719ZM434.875 352C416.531 352 369.844 324.125 341.938 307.469C330.031 300.344 319.406 294.031 311.438 289.844C305.219 286.531 297.594 287.75 292.688 292.688C287.719 297.656 286.563 305.25 289.844 311.438C294.031 319.406 300.344 330.031 307.469 341.938C324.125 369.844 352 416.531 352 434.875C352 459.563 330.031 479.656 303.062 479.656C289.406 479.656 276.75 474.625 267.438 465.531C261.188 459.406 251.219 459.5 244.969 465.625C235.75 474.75 222.625 480 208.938 480C181.969 480 160 459.75 160 434.875C160 416.531 187.875 369.844 204.531 341.938C211.656 330.031 217.969 319.406 222.156 311.438C225.438 305.25 224.281 297.656 219.312 292.688C216.25 289.625 212.156 288 208 288C205.469 288 202.906 288.594 200.562 289.844C192.594 294.031 181.969 300.344 170.062 307.469C142.156 324.125 95.469 352 77.125 352C52.437 352 32.344 330.031 32.344 303.062C32.344 289.406 37.375 276.75 46.469 267.438C52.594 261.188 52.531 251.188 46.375 244.969C37.25 235.75 32 222.625 32 208.938C32 181.969 52.25 160 77.125 160C95.469 160 142.156 187.875 170.062 204.531C181.969 211.656 192.594 217.969 200.562 222.156C206.719 225.406 214.375 224.219 219.312 219.312C224.281 214.344 225.437 206.75 222.156 200.562C217.969 192.594 211.656 181.969 204.531 170.062C187.875 142.156 160 95.469 160 77.125C160 52.437 181.969 32.344 208.938 32.344C222.594 32.344 235.25 37.375 244.562 46.469C250.844 52.656 260.812 52.562 267.031 46.375C276.25 37.25 289.375 32 303.062 32C330.031 32 352 52.25 352 77.125C352 95.469 324.125 142.156 307.469 170.062C300.344 181.969 294.031 192.594 289.844 200.562C289.752 200.734 289.834 200.936 289.75 201.109C288.449 203.799 288.014 206.678 288.309 209.588C288.371 210.211 288.516 210.727 288.65 211.338C289.277 214.242 290.43 217.055 292.688 219.312C294.941 221.566 297.746 222.719 300.645 223.348C301.262 223.486 301.779 223.625 302.408 223.689C302.947 223.744 303.459 224 304 224C306.385 224 308.699 223.309 310.891 222.248C311.064 222.164 311.266 222.248 311.437 222.156C319.406 217.969 330.031 211.656 341.937 204.531C369.844 187.875 416.531 160 434.875 160C459.563 160 479.656 181.969 479.656 208.938C479.656 222.594 474.625 235.25 465.531 244.562C459.406 250.812 459.469 260.812 465.625 267.031C474.75 276.25 480 289.375 480 303.062C480 330.031 459.75 352 434.875 352Z"/></svg>
